src/16/panel/dropboxstatus-idle.svg

<svg xmlns="http://www.w3.org/2000/svg" width="16" height="16" version="1.1">
 <defs>
  <style id="current-color-scheme" type="text/css">
   .ColorScheme-Text { color:#bebebe; } .ColorScheme-Highlight { color:#5294e2; }
  </style>
 </defs>
 <path style="fill:currentColor" class="ColorScheme-Text" d="M 4.4472656 1 L 4.4492188 1.0039062 L 0.0078125 3.5078125 L 4 5.9863281 L 0 9.0039062 L 4.4492188 11.5 L 8 9.0097656 L 4 6 L 8 3.5078125 L 12 6.0136719 L 10.263672 7.3144531 A 5 5 0 0 1 12 7 A 5 5 0 0 1 13.792969 7.3378906 L 12 5.9960938 L 15.990234 3.5058594 L 11.550781 1 L 8 3.4921875 L 4.4472656 1 z M 12 8 A 4 4 0 0 0 8 12 A 4 4 0 0 0 12 16 A 4 4 0 0 0 16 12 A 4 4 0 0 0 12 8 z M 15.970703 8.9667969 A 5 5 0 0 1 15.990234 8.9960938 L 16 8.9902344 L 15.970703 8.9667969 z M 14.199219 9.2617188 A 3.5 3.5 0 0 1 14.632812 9.6835938 A 3.5 3.5 0 0 1 14.634766 9.6855469 A 3.5 3.5 0 0 1 15.347656 10.980469 A 3.5 3.5 0 0 1 15.453125 11.417969 A 3.5 3.5 0 0 1 15.494141 11.878906 C 15.489141 11.725906 15.476172 11.572922 15.451172 11.419922 C 15.427172 11.269922 15.390702 11.123422 15.345703 10.982422 C 15.300703 10.840422 15.248503 10.702406 15.1875 10.566406 L 12.007812 14.201172 L 11.662109 14.607422 L 11.271484 14.232422 L 9.7695312 12.730469 C 9.5805312 12.542469 9.5805312 12.198766 9.7695312 12.009766 C 9.9575313 11.821766 10.300281 11.821766 10.488281 12.009766 L 11.615234 13.136719 L 14.632812 9.6835938 C 14.498126 9.5289517 14.353809 9.3884847 14.199219 9.2617188 z M 7.2128906 10.5625 L 4.4492188 12.501953 L 3.5605469 12.003906 L 3.5605469 12.375 L 8 15 L 8.0058594 14.998047 A 5 5 0 0 1 7 12 A 5 5 0 0 1 7.2128906 10.5625 z"/>
</svg>

<svg xmlns="http://www.w3.org/2000/svg" width="16" height="16"><defs><style id="current-color-scheme" type="text/css"></style></defs><path d="M4.447 1l.002.004L.008 3.508 4 5.986 0 9.004 4.45 11.5 8 9.01 4 6l4-2.492 4 2.506-1.736 1.3A5 5 0 0 1 12 7a5 5 0 0 1 1.793.338L12 5.996l3.99-2.49L11.55 1 8 3.492 4.447 1zM12 8a4 4 0 0 0-4 4 4 4 0 0 0 4 4 4 4 0 0 0 4-4 4 4 0 0 0-4-4zm3.97.967a5 5 0 0 1 .02.03L16 8.99l-.03-.023zm-1.77.295a3.5 3.5 0 0 1 .433.422 3.5 3.5 0 0 1 .002.002 3.5 3.5 0 0 1 .713 1.294 3.5 3.5 0 0 1 .105.438 3.5 3.5 0 0 1 .041.46 3.561 3.561 0 0 0-.043-.458 3.001 3.001 0 0 0-.105-.438 3.867 3.867 0 0 0-.159-.416l-3.18 3.635-.345.406-.39-.375L9.77 12.73a.529.529 0 0 1 0-.72.528.528 0 0 1 .718 0l1.127 1.127 3.018-3.453a3.61 3.61 0 0 0-.434-.422zm-6.987 1.3l-2.764 1.94-.888-.498v.371L8 15l.006-.002A5 5 0 0 1 7 12a5 5 0 0 1 .213-1.438z" fill="currentColor" color="#bebebe"/></svg>
